bs-navigator/img/icons/whatsapp.svg

<svg width="16" height="17" viewBox="0 0 16 17" fill="none" xmlns="http://www.w3.org/2000/svg">
<g clip-path="url(#clip0_4_19)">
<path d="M13.2 3.001C11.7488 1.56002 9.78662 0.751343 7.7415 0.751343C5.69638 0.751343 3.73423 1.56002 2.283 3.001C1.56063 3.70828 0.986637 4.55257 0.594623 5.48444C0.202609 6.41631 0.000455644 7.41703 0 8.428H0C0.00763637 9.69822 0.331737 10.9465 0.943 12.06L0.021 16.25L4.26 15.286C5.33945 15.8288 6.53076 16.112 7.739 16.113C9.78612 16.1171 11.7511 15.3082 13.202 13.864C13.925 13.1561 14.4993 12.3111 14.8914 11.3783C15.2834 10.4455 15.4853 9.44388 15.4851 8.43208C15.4849 7.42027 15.2827 6.41869 14.8903 5.48608C14.4979 4.55346 13.9232 3.70858 13.2 3.001ZM7.745 14.901C6.65966 14.9003 5.59155 14.6295 4.637 14.113L4.437 14.004L1.613 14.65L2.225 11.868L2.107 11.668C1.52803 10.6889 1.21759 9.57441 1.207 8.437C1.21677 7.1511 1.60599 5.8967 2.32585 4.83114C3.04571 3.76557 4.06417 2.93626 5.25349 2.44723C6.44281 1.95819 7.75005 1.8312 9.01126 2.08217C10.2725 2.33314 11.4315 2.95091 12.343 3.858C12.9523 4.45456 13.4369 5.16635 13.7686 5.95194C14.1003 6.73754 14.2724 7.58126 14.275 8.434C14.2642 10.1574 13.5703 11.8062 12.3457 13.0189C11.121 14.2316 9.46546 14.9091 7.742 14.903L7.745 14.901Z" fill="#9FA79A"/>
<path d="M5.63699 5.04501H5.29798C5.20834 5.04741 5.12016 5.06827 5.03895 5.10629C4.95774 5.14432 4.88523 5.19869 4.82598 5.26601C4.62589 5.45471 4.46738 5.6831 4.36062 5.93657C4.25386 6.19004 4.2012 6.46301 4.20599 6.73801C4.26374 7.40416 4.51505 8.03888 4.92898 8.56401C5.6656 9.71977 6.71438 10.6434 7.95399 11.228C9.45399 11.816 9.75399 11.699 10.079 11.67C10.3269 11.6228 10.562 11.5236 10.7688 11.379C10.9756 11.2344 11.1495 11.0476 11.279 10.831C11.3937 10.5671 11.4284 10.2754 11.379 9.992C11.335 9.918 11.217 9.87401 11.039 9.78601C10.861 9.69801 9.99399 9.26301 9.83099 9.20401C9.66799 9.14501 9.55098 9.116 9.43098 9.293C9.31098 9.47 8.96498 9.87801 8.86198 9.99301C8.75898 10.108 8.65499 10.126 8.47799 10.037C7.95855 9.82721 7.47894 9.52991 7.05999 9.158C6.66739 8.79581 6.33042 8.37764 6.05999 7.91701C5.95999 7.74001 6.04898 7.64501 6.13798 7.55701C6.22698 7.46901 6.32498 7.37001 6.41398 7.26701C6.48542 7.1778 6.54369 7.07878 6.58698 6.97301C6.61045 6.92434 6.62137 6.87057 6.61875 6.8166C6.61613 6.76264 6.60005 6.71017 6.57199 6.664C6.52799 6.576 6.18798 5.703 6.02998 5.354C5.90098 5.06 5.76099 5.05001 5.63699 5.04501Z" fill="#9FA79A"/>
</g>
<defs>
<clipPath id="clip0_4_19">
<rect width="15.485" height="15.5" fill="white" transform="translate(0 0.75)"/>
</clipPath>
</defs>
</svg>

<svg width="16" height="17" fill="none" xmlns="http://www.w3.org/2000/svg"><g clip-path="url(#clip0_4_19)" fill="#9FA79A"><path d="M13.2 3.001a7.747 7.747 0 00-10.917 0A7.6 7.6 0 000 8.428a7.643 7.643 0 00.943 3.632l-.922 4.19 4.239-.964c1.08.543 2.27.826 3.479.827a7.722 7.722 0 005.463-2.249A7.6 7.6 0 0013.2 3.001zm-5.455 11.9a6.54 6.54 0 01-3.108-.788l-.2-.109-2.824.646.612-2.782-.118-.2a6.466 6.466 0 01-.9-3.231 6.53 6.53 0 0111.136-4.579 6.432 6.432 0 011.932 4.576 6.51 6.51 0 01-6.533 6.469l.003-.002z"/><path d="M5.637 5.045h-.339a.652.652 0 00-.472.221 1.976 1.976 0 00-.62 1.472c.058.666.309 1.3.723 1.826a7.259 7.259 0 003.025 2.664c1.5.588 1.8.471 2.125.442a1.787 1.787 0 001.2-.839c.115-.264.15-.556.1-.839-.044-.074-.162-.118-.34-.206-.178-.088-1.045-.523-1.208-.582-.163-.059-.28-.088-.4.089s-.466.585-.569.7c-.103.115-.207.133-.384.044a4.9 4.9 0 01-1.418-.879 5.426 5.426 0 01-1-1.241c-.1-.177-.011-.272.078-.36.089-.088.187-.187.276-.29.071-.09.13-.188.173-.294a.324.324 0 00-.015-.309c-.044-.088-.384-.961-.542-1.31-.129-.294-.269-.304-.393-.309z"/></g><defs><clipPath id="clip0_4_19"><path fill="#fff" transform="translate(0 .75)" d="M0 0h15.485v15.5H0z"/></clipPath></defs></svg>
